X: 1
T: Anna's Waltz
C:
N:
R: walzt
Z: 2020 John Chambers <jc:trillian.mit.edu>
S: https://www.facebook.com/groups/Fiddletuneoftheday/
S: https://www.facebook.com/groups/Fiddletuneoftheday/photos/
M: 3/4
L: 1/8
K: Am
G2 |\
"C"c3BA2 | G2E2G2 | "F"A2B2c2 | "G"d4cd |\
"C"e3fg2 | "A2m"c2d2e2 | "D2m"A2d2c2 | "G"B2G2G2 |
"F"A3BcA | "C"G2E2G2 | "F"A2B2c2 | "G"d4cd |\
"Am"e3dc2 | "Em"E2A2G2 | "Am"A6- | A2z2 :|
|: A2 |\
"Dm"a3gf2 | "Am"e2A2A2 | "F"a3gf2 | "C"e4e2 |\
"F"a3bc'a | "C"g2e2c2 | "Dm"A2d2c2 | "G"B/c/BA2G2 |
[A3F3][BG][cA][AF] | "C"[G2E2][E2C2][G2E2] | "F"[A2F2][B2G2][cA2]e | "G"[d4B4]cB |\
"Am"A3Bcd | "Em"e2E2AG | "Am"A6- | A2z2 |]
